X:1
Q:1/4=200
M:3/4
P:IABACA
K:C
P:I
x4 x4 x4 x4 x4 x4 x4 x4 x4 x4 x4 x4 E2 || "Am"c6 | (3cdc B2 A2 | "E7"B2 z E E2 | E2 z2 E2 ||
P:A
| "Am"c6 | B4 A2 | E6 | E2 C2 D2 \
| E6 | C4 D2 | "E7"B,6 | B,6 \
| D6 | B4 A2 | ^G6 | ^G2 z2 z2 \
| E2 F2 E2 | (3DED C2 B,2 | "Am"A,6 | A,2 A,C EA |
| c6 | B4 A2 | E6 | E6 \
| "A7"[E6^C6] | G4 A2 | G6 | "Dm"F6 \
| D6 | F4 A2 | "Am"E6 | (3cdc B2 A2 \
| "E7"E6 | B2 c2 B2 | "Am"A6 | A2 z2 z2 |
P:B
|: "G7"G3 A B2 | (3BcB A2 G2 | "C"c3 d e2 | (3efe d2 c2 \
| "G7"B3 c d2 | (3fgf e2 d2 | "C"cBdcBA | G2 A2 _A |
| "G7"G3 A B2 | (3BcB A2 G2 | "C"c3 d e2 | (3efe d2 c2 \
| "G7"B3 A G2 | (3FGF E2 D2 | "C"C6 |1 C2 A2 ^G2 :|2 C2 z2 E2 ||
P:C
K:F
|: "F"FG AF GA | [d3A3F3] [dAF] [d2A2F2] | FG AF GA | "C"[c3B3E3] [cBE][c2B2E2] \
| GABGAB | [e3B3G3] [eBG] [e2B2G2] | [d3G3E3] [dGE] [d2G2E2] | "F"[c3A3F3] [cAF] [c2A2F2] |
| FGA FGA | [d3F3A3] [dFA] [d2F2A2] | FGA FGA | "Gm"[d3B3G3] [dBG] [d2B2G2] \
| "Fdim"d^c df ed | "F"c3 [cAF] [c2A2F2] | "C7"cd cB AG |1 "F"F2 d2 c2 :|2 "F"F2 z2 E2 ||
